svg/FoundationIcons/fi-social-deviant-art.svg

<svg xmlns="http://www.w3.org/2000/svg" viewBox="0 0 100 100" enable-background="new 0 0 100 100"><path d="m46.35 44.786c2.026-.797 7.307-1.86 11.09-1.328l4.749 9.896 13.05-3.089c.664-.133.996-.996 0-1.893-8.17-6.575-16.24-7.87-32.18-4.383l9.465 19.727-33.04 9.316v5.995c0 .219.089.419.233.562.144.145.344.233.563.233h59.25c.22 0 .419-.089.563-.233.144-.144.233-.344.233-.562v-22.904l-25.21 6.696c0 0-7.08-14.247-8.768-18.03"/><path d="m79.52 19.513h-59.25c-.165 0-.31.062-.437.148-.212.143-.36.374-.36.648v25.81c1.266-.977 5.98-4.468 10.528-5.917l-3.886-8.967h10.959c0 0 2.89 6.276 2.89 6.376 3.985-1.195 23.11-4.284 40.15 3.089l.199.146v-20.536c0-.274-.148-.506-.36-.648-.127-.087-.271-.149-.436-.149"/><path d="m27.18 61.89c2.458-.531 11.823-3.056 11.823-3.056l-6.05-12.421c-1.66.465-8.634 3.653-8.103 14.347 0 0-.133 1.661 2.325 1.13"/><path d="m80.02 14.13h-60.04c-3.301 0-5.978 2.677-5.978 5.977v59.78c0 3.301 2.677 5.977 5.978 5.977h60.04c3.301 0 5.978-2.677 5.978-5.977v-59.78c0-3.3-2.677-5.977-5.978-5.977m2.291 64.893c0 1.538-1.251 2.789-2.789 2.789h-59.25c-1.538 0-2.79-1.251-2.79-2.789v-58.716c0-1.538 1.252-2.789 2.79-2.789h59.25c1.538 0 2.789 1.251 2.789 2.789v58.716"/></svg>

<?xml version="1.0" encoding="utf-8"?>
<!-- Generator: Adobe Illustrator 17.0.0, SVG Export Plug-In . SVG Version: 6.00 Build 0)  -->
<!DOCTYPE svg PUBLIC "-//W3C//DTD SVG 1.1//EN" "http://www.w3.org/Graphics/SVG/1.1/DTD/svg11.dtd">
<svg version="1.1" id="Layer_1" xmlns="http://www.w3.org/2000/svg" xmlns:xlink="http://www.w3.org/1999/xlink" x="0px" y="0px"
	 width="100px" height="100px" viewBox="0 0 100 100" enable-background="new 0 0 100 100" xml:space="preserve">
<g>
	<path d="M46.347,44.786c2.026-0.797,7.307-1.86,11.093-1.328l4.749,9.896l13.052-3.089c0.664-0.133,0.996-0.996,0-1.893
		c-8.17-6.575-16.24-7.87-32.181-4.383l9.465,19.727l-33.044,9.316v5.995c0,0.219,0.089,0.419,0.233,0.562
		c0.144,0.145,0.344,0.233,0.563,0.233h59.248c0.22,0,0.419-0.089,0.563-0.233c0.144-0.144,0.233-0.344,0.233-0.562V56.123
		l-25.206,6.696C55.115,62.819,48.04,48.572,46.347,44.786z"/>
	<path d="M79.524,19.513H20.276c-0.165,0-0.31,0.062-0.437,0.148c-0.212,0.143-0.36,0.374-0.36,0.648v25.81
		c1.266-0.977,5.98-4.468,10.528-5.917l-3.886-8.967h10.959c0,0,2.89,6.276,2.89,6.376c3.985-1.195,23.114-4.284,40.151,3.089
		l0.199,0.146V20.31c0-0.274-0.148-0.506-0.36-0.648C79.833,19.575,79.689,19.513,79.524,19.513z"/>
	<path d="M27.185,61.89c2.458-0.531,11.823-3.056,11.823-3.056l-6.045-12.421c-1.66,0.465-8.634,3.653-8.103,14.347
		C24.86,60.76,24.727,62.421,27.185,61.89z"/>
	<path d="M80.022,14.133H19.978C16.677,14.133,14,16.81,14,20.11V79.89c0,3.301,2.677,5.977,5.978,5.977h60.044
		c3.301,0,5.978-2.677,5.978-5.977V20.11C86,16.81,83.323,14.133,80.022,14.133z M82.313,79.026c0,1.538-1.251,2.789-2.789,2.789
		H20.276c-1.538,0-2.79-1.251-2.79-2.789V20.31c0-1.538,1.252-2.789,2.79-2.789h59.248c1.538,0,2.789,1.251,2.789,2.789V79.026z"/>
</g>
</svg>
